frontend/public/svg/interface/switch-1.svg

<svg width="162" height="145" viewBox="0 0 162 145" fill="none" xmlns="http://www.w3.org/2000/svg">
<g clip-path="url(#clip0)">
<path d="M115.221 1.45875C115.108 1.56552 115.037 1.70783 115.018 1.86143C115 2.01503 115.036 2.17018 115.121 2.30015C122.644 14.0167 132.719 24.3131 146.778 34.6469C144.811 34.6508 142.844 34.6677 140.876 34.6846C136.036 34.7253 131.029 34.7672 126.118 34.6137C92.0449 33.5508 56.1771 34.9647 13.2388 39.0622C11.5553 39.2003 9.87983 39.4251 8.21958 39.7354C6.16359 40.1491 4.90863 41.6204 5.08456 43.3927C5.26829 45.18 6.41696 46.2799 8.31976 46.4896C8.69824 46.5311 9.07671 46.5783 9.45584 46.6249C10.6418 46.7978 11.8375 46.8936 13.0359 46.9116C20.066 46.8676 27.2449 46.7763 34.3737 46.6404C61.4405 46.1225 85.5296 45.6449 108.013 45.1827C113.463 45.0701 118.914 44.9395 124.364 44.7911C128.461 44.6862 132.558 44.5853 136.655 44.4882C138.205 44.4533 139.771 44.4614 141.427 44.4712C141.864 44.4712 142.308 44.4765 142.762 44.4778L142.744 44.5057C142.385 45.1077 142.065 45.6447 141.748 46.184L137.414 53.5637C132.221 62.4087 126.851 71.5548 121.626 80.5855C120.864 81.9313 120.447 83.4448 120.412 84.9906C120.387 85.7058 120.56 86.414 120.913 87.0374C121.264 87.6614 121.782 88.176 122.408 88.5262C123.081 88.8648 123.835 89.0098 124.586 88.9444C125.338 88.879 126.056 88.6065 126.659 88.1566C127.53 87.5222 128.28 86.7383 128.873 85.8411C130.295 83.8118 131.746 81.6336 133.309 79.1789C134.993 76.5352 136.656 73.8786 138.319 71.222C144.188 61.8441 150.257 52.1466 157.186 43.2634C158.222 41.9334 159.19 40.5507 160.083 39.1207C160.868 37.9544 161.307 36.5916 161.352 35.188C161.324 34.2842 161.103 33.3966 160.703 32.5852C160.302 31.7738 159.732 31.0575 159.03 30.4845C157.819 29.4287 156.536 28.4574 155.191 27.577C154.579 27.1556 153.964 26.7355 153.367 26.2959C151.957 25.2602 150.544 24.2296 149.129 23.2047C145.587 20.6277 141.924 17.9615 138.393 15.2576C137.059 14.2355 135.771 13.086 134.527 11.9739C133.246 10.8301 131.922 9.64792 130.527 8.58372C127.026 5.91287 123.335 3.43382 120.15 1.32031C119.377 0.806989 117.325 -0.556358 115.221 1.45875Z" fill="black"/>
<path d="M39.8564 69.9356L40.2849 69.5764C41.1665 68.8339 42.5006 67.7114 41.4742 65.552C41.4304 65.4594 41.3657 65.3785 41.2853 65.315C41.2049 65.2516 41.1104 65.2076 41.0102 65.1862C40.8323 65.1487 40.6445 65.0988 40.4491 65.0477C39.9124 64.8872 39.3596 64.7862 38.8008 64.7461C35.9297 64.6268 33.1217 65.6076 30.9534 67.4881L30.8519 67.5736C27.5319 70.3888 24.1003 73.2991 21.2237 76.6361C20.0552 77.9954 18.8931 79.3645 17.7343 80.7336C13.6093 85.6112 9.3433 90.6551 4.54313 95.0504C3.60179 95.9172 2.77848 96.9024 2.09344 97.9815C0.247779 100.899 0.644827 103.763 3.2403 106.267L4.32124 107.307C6.47267 109.378 8.69865 111.514 10.7358 113.743C13.3086 116.555 15.8881 119.45 18.3816 122.25C21.327 125.555 24.3714 128.973 27.4291 132.283C30.4219 135.52 33.6786 138.597 36.8272 141.573L37.1657 141.893C38.2744 142.909 39.5306 143.754 40.8916 144.396C42.2413 145.057 43.6526 144.549 44.5738 143.073C45.6534 141.343 44.3111 140.11 43.8073 139.646C43.4554 139.323 43.1003 139.001 42.7428 138.682C41.4573 137.576 40.2484 136.384 39.1235 135.116C32.3173 127.056 25.4588 118.808 18.826 110.831L16.5361 108.076C16.4255 107.929 16.3356 107.767 16.2692 107.595L20.7679 107.843C24.6306 108.057 28.3871 108.265 32.1434 108.467C35.2907 108.636 38.4379 108.814 41.5852 109.001C48.8458 109.422 56.3535 109.857 63.7484 110.117C75.7483 110.54 87.7467 110.746 101.063 110.952C118.743 111.226 133.142 111.369 146.377 111.4C148.675 111.353 150.937 110.815 153.009 109.824C153.568 109.588 154.057 109.213 154.429 108.734C154.802 108.255 155.044 107.69 155.134 107.091C155.153 106.948 155.163 106.803 155.162 106.659C155.149 106.099 155.013 105.549 154.764 105.047C154.514 104.545 154.158 104.104 153.72 103.754C152.369 102.607 150.738 101.84 148.992 101.531C145.881 101.129 142.746 100.941 139.609 100.968C126.371 100.878 113.133 100.801 99.8957 100.736C86.482 100.664 73.069 100.586 59.6561 100.501C50.9141 100.441 42.0251 100.331 33.4284 100.223C29.0689 100.169 24.7096 100.117 20.3501 100.066C19.2919 100.055 18.2327 100.057 17.0668 100.061H16.803C24.1769 92.0611 30.6432 83.275 36.0842 73.861C36.9476 72.3689 38.4268 71.1319 39.8564 69.9356Z" fill="black"/>
</g>
<defs>
<clipPath id="clip0">
<rect width="161" height="145" fill="white" transform="translate(0.777344)"/>
</clipPath>
</defs>
</svg>

<svg xmlns="http://www.w3.org/2000/svg" width="162" height="145" fill="none" viewBox="0 0 162 145"><g fill="#000" clip-path="url(#a)"><path d="M115.221 1.459a.66.66 0 0 0-.1.841c7.523 11.717 17.598 22.013 31.657 32.347-1.967.004-3.934.02-5.902.038-4.84.04-9.847.082-14.758-.071-34.073-1.063-69.94.35-112.88 4.448a49 49 0 0 0-5.018.673c-2.056.414-3.311 1.885-3.135 3.658.183 1.787 1.332 2.887 3.235 3.097q.567.063 1.136.135 1.781.26 3.58.287c7.03-.044 14.209-.136 21.338-.272 27.066-.517 51.156-.995 73.639-1.457q8.176-.169 16.351-.392 6.145-.158 12.291-.303c1.55-.035 3.116-.027 4.772-.017.437 0 .881.006 1.335.007l-.018.028c-.359.602-.679 1.139-.996 1.678l-4.334 7.38c-5.193 8.845-10.563 17.99-15.788 27.021a9.4 9.4 0 0 0-1.214 4.406 3.9 3.9 0 0 0 1.996 3.536 4.06 4.06 0 0 0 4.251-.37 9 9 0 0 0 2.214-2.316 180 180 0 0 0 4.436-6.662c1.684-2.644 3.347-5.3 5.01-7.957 5.869-9.378 11.938-19.075 18.867-27.959a49 49 0 0 0 2.897-4.142 7.47 7.47 0 0 0 1.269-3.933 6.33 6.33 0 0 0-2.322-4.704 35 35 0 0 0-3.839-2.907c-.612-.421-1.227-.842-1.824-1.281a786 786 0 0 0-4.238-3.091c-3.542-2.577-7.205-5.243-10.736-7.947-1.334-1.022-2.622-2.172-3.866-3.284-1.281-1.144-2.605-2.326-4-3.39-3.501-2.671-7.192-5.15-10.377-7.264-.773-.513-2.825-1.876-4.929.139M39.856 69.936l.429-.36c.882-.742 2.216-1.865 1.19-4.024a.66.66 0 0 0-.465-.366c-.178-.037-.365-.087-.56-.138a7.7 7.7 0 0 0-1.65-.302c-2.87-.12-5.678.862-7.847 2.742l-.101.086c-3.32 2.815-6.752 5.725-9.628 9.062a703 703 0 0 0-3.49 4.098c-4.125 4.877-8.39 9.921-13.19 14.316a14.7 14.7 0 0 0-2.45 2.932c-1.846 2.917-1.45 5.781 1.146 8.285l1.081 1.04c2.152 2.071 4.378 4.207 6.415 6.436a856 856 0 0 1 7.646 8.507c2.945 3.305 5.99 6.723 9.047 10.033 2.993 3.237 6.25 6.314 9.398 9.29l.339.32a15 15 0 0 0 3.726 2.503c1.35.661 2.76.153 3.682-1.323 1.08-1.73-.263-2.963-.767-3.427q-.528-.485-1.064-.964a38 38 0 0 1-3.62-3.566c-6.806-8.06-13.664-16.308-20.297-24.285l-2.29-2.755q-.166-.222-.267-.481l4.499.248c3.863.214 7.62.422 11.375.624q4.722.254 9.442.534c7.26.421 14.768.856 22.163 1.116 12 .423 23.999.629 37.315.835 17.68.274 32.079.417 45.314.448a16.1 16.1 0 0 0 6.632-1.576 3.54 3.54 0 0 0 2.125-2.733q.029-.215.028-.432a3.83 3.83 0 0 0-1.442-2.905 10 10 0 0 0-4.728-2.223 69 69 0 0 0-9.383-.563q-19.857-.135-39.713-.232-20.12-.108-40.24-.235c-8.742-.06-17.63-.17-26.228-.278q-6.539-.08-13.078-.157a237 237 0 0 0-3.283-.005h-.264a147.7 147.7 0 0 0 19.281-26.2c.864-1.492 2.343-2.73 3.772-3.925"/></g><defs><clipPath id="a"><path fill="#fff" d="M.777 0h161v145h-161z"/></clipPath></defs></svg>
